X: 10292
M: C|
L: 1/8
K: Eb
E2G2 G2(3BGE | D2F2 F2(3AFD | C2c2- c>de>c | {c}B>=AB>c B>G_A>F |\
E2 "_>"B4 {d}uc2 | uA,2 "_>"c4 (d>e) | D>(EF)>(G A)>(cB)>(A | G)>(E{G}F)>D E2 :|
{e}vg>v^f |\
g2E2 E2(3gbg | f2D2 D2(3fgf | e2c2 c2d>e | (f>=e)f>g f2z2 |\
(vDB)fB (DB)fB | (EB)gB (EB)gB | (B>=A)c>B (e>c)B>A | (B>=A)B>c (B>_A)G>F |
(D>G)BG (e>G)F>E | (D>F)B>F (d>F)E>D | (C>E)A>E (c>B)AG | (3FGF (3EDC D(CB,C) |\
(G,E)BE (G,E)BE | (A,E)cE (A,E)cE | D>(EF)>(G A)>(cB)>(A | G)>(E{G}F)>D [E2G,2] "^D.C."|]


